X:1
T:D minor Oliver Brownson, 1784
T:Isaac Watts, 1709 (Hymn 52, Book 2)         86. 86. (C. M.)
T:Windham
T:Transcribed from Select Harmony, 1783.
%%score [ 1 2 3 4 ]
L:1/8
Q:1/4=120
M:3/4
K:F
V:1 treble nm="Treble" snm="Tr."
V:2 treble nm="Counter" snm="C."
V:3 treble-8 nm="Tenor" snm="T."
V:4 bass nm="Bass" snm="B."
V:1
 A2 | (d2 c2) A2 | A4 A2 | (c2 ed) cB | c4 c2 | d4 c2 | A4 G2 | A4 z2 | e2 e2 c2 | d4 ^c2 | d4 c2 | %11
w: 1.~Death!|'Tis * a|me- lan-|cho- * * ly *|day To|those that|have no|God,|When the poor|soul is|forced a-|
w: 2.~In|vain * to|heav'n she|lifts * * her *|eyes, But|guilt, a|hea- vy|chain,|Still drags her|down- ward|from the|
 A4 A2 | A4 c2 | B4 A2 | A6 |] %15
w: way To|seek her|last a-|bode.|
w: skies To|dark- ness,|fire, and|pain.|
V:2
 D2 | (F2 E2) DC | (D>E F2) A2 | G4 E2 | E4 F2 | D4 E2 | (E2 D2) ^C2 | D4 z2 | G2 G2 E2 | %9
w: 3.~A-|wake * and *|mourn, * * ye|heirs of|hell, Let|stub- born|sin- * ners|fear;|You must be|
w: 4.~See|how * the *|pit * * gapes|wide for|you, And|fla- shes|in * your|face:|And thou, my|
 (F>G A2) E2 | F4 C2 | D4 F2 | A4 A2 | G4 E2 | F6 |] %15
w: driv'n~ _ _ from|earth, and|dwell A|long for-|ev- er|there.|
w: soul,~ _ _ look|down- wards|too, And|sing re-|co- vering|grace.|
V:3
 A2 | (F2 G2) A2 | d4 c2 | (A2 cB) AG | A4 F2 | (B2 A2) G2 | (c2 f2) e2 | A4 z2 | c2 c2 c2 | %9
w: 5.~He|is * a|God of|sove- * * reign *|love, That|pro- * mised|heav'n * to|me,|And taught my|
w: 6.~Pre-|pare * me,|Lord, for|thy~ _ _ right *|hand, Then|come * the|joy- * ful|day,|Come, death, and|
 (A>G F2) E2 | D4 E2 | D4 A2 | (d2 e2) f2 | d4 ^c2 | d6 |] %15
w: thoughts * * to|soar a-|bove, Where|hap- * py|spi- rits|be.|
w: some~ _ _ ce-|les- tial|band, To|bear * my|soul a-|way.|
V:4
 D,2 | (D,2 E,2) F,2 | D,4 F,2 | C,4 E,2 | A,,4 A,2 | (G,2 F,2) E,>D, | (C,2 D,2) E,2 | D,4 z2 | %8
 C,2 C,2 E,2 | D,4 G,2 | F,4 G,2 | A,4 D,2 | (F,D, A,2) F,2 | G,4 A,2 | D,6 |] %15

